X:3964
T:Mama's Pet
O:england
R:reel
D:Michael McGoldrick: Morning Rory
D:Frankie Gavin: Frankie Goes to Town
M:C|
K:D
G2BG EGDE|G2BG dGBA|G2BG EGDG|Bded B2AB:|
dBGB d2de|dBGB ~e3g|dBGB deBd|eged B2AB|
dBGB d2Bd|g2bg eBdB|~G3B ~A3B|d2gd B2AB||
"variations"
G2FB EBDE|G2BG dGBA|G2FB EBDE|Bded B2AB:|
dBGB d2de|dBGB ~e3g|dBGB dGBd|eged B2AB|
dBGB dGBd|g2bg egdB|~G3B AGAB|d2gd BdAB||


